fs/thumb_like_24_filled.svg

<svg viewBox="0 0 24 24" fill="none" xmlns="http://www.w3.org/2000/svg" height="1em" width="1em">
  <path d="M15.0556 9.00361C15.5164 7.57659 15.7491 6.32742 15.7491 5.25034C15.7491 2.85167 14.81 1.00293 13.2491 1.00293C12.4023 1.00293 12.1402 1.50717 11.8123 2.74976C11.8295 2.68483 11.6494 3.38371 11.5968 3.57096C11.4958 3.9297 11.32 4.54045 11.0697 5.40197C11.063 5.42505 11.0532 5.4468 11.0403 5.46688L8.17359 9.95254C7.49554 11.0135 6.49507 11.829 5.31919 12.2792L4.06196 12.7606C3.26859 13.0643 2.80797 13.894 2.96968 14.728L3.65584 18.2667C3.82298 19.1287 4.47629 19.8147 5.32909 20.0237L13.5786 22.0456C16.1098 22.666 18.6682 21.1311 19.3121 18.6057L20.886 12.4331C21.2612 10.9614 20.3723 9.46411 18.9007 9.08887C18.6786 9.03225 18.4504 9.00361 18.2212 9.00361H15.0556Z" fill="#212121"/>
</svg>

<svg viewBox="0 0 24 24" fill="none" xmlns="http://www.w3.org/2000/svg" height="1em" width="1em">
  <path d="M15.056 9.004c.46-1.427.693-2.677.693-3.754 0-2.398-.939-4.247-2.5-4.247-.847 0-1.109.504-1.437 1.747.018-.065-.163.634-.215.821-.101.359-.277.97-.527 1.831a.247.247 0 0 1-.03.065L8.174 9.953a5.885 5.885 0 0 1-2.855 2.326l-1.257.482a1.75 1.75 0 0 0-1.092 1.967l.686 3.539a2.25 2.25 0 0 0 1.673 1.757l8.25 2.022a4.75 4.75 0 0 0 5.733-3.44l1.574-6.173a2.75 2.75 0 0 0-2.665-3.43h-3.165Z" fill="#212121"/>
</svg>
